static/logos/outreach-glyph-color.svg

<svg width="50" height="49" viewBox="0 0 50 49" fill="none" xmlns="http://www.w3.org/2000/svg">
<path fill-rule="evenodd" clip-rule="evenodd" d="M22.19 0C29.8317 0 41.3783 2.35333 46.7533 7.75C48.115 9.11833 49.8967 11.7983 49.8967 15.7233C49.8967 22.7017 44.2967 33.4083 38.1133 39.6183C34.9167 42.8283 29.8317 47.0233 22.9917 47.0233C16.305 47.0233 11.1983 42.4633 9.72 40.9783C4.05667 35.2917 0 26.66 0 18.6117C0 13.5333 1.44167 9.09167 5.12 5.4C8.52667 1.98 14.3967 0 22.19 0ZM31.6483 27.83C34.2283 25.2383 34.9233 22.0467 34.9233 20.29C34.9233 19.0167 34.59 17.1483 33.0033 15.5567C30.57 13.1133 27.875 12.4233 24.9433 12.4233C21.23 12.4233 18.735 13.6017 17.0733 15.2717C15.77 16.58 14.6433 18.5917 14.6433 21.45C14.6433 24.3067 16.16 27.0667 17.8133 28.725C19.34 30.2583 21.74 31.3933 24.1567 31.3933C26.5733 31.3933 29.0683 30.4217 31.6483 27.83Z" fill="#5952FF"/>
</svg>

<svg xmlns="http://www.w3.org/2000/svg" width="65.306" height="64" fill="none" viewBox="0 0 50 49"><path fill="#5952FF" fill-rule="evenodd" d="M22.19 0c7.642 0 19.188 2.353 24.563 7.75 1.362 1.368 3.144 4.048 3.144 7.973 0 6.979-5.6 17.685-11.784 23.895-3.196 3.21-8.281 7.405-15.121 7.405-6.687 0-11.794-4.56-13.272-6.045C4.057 35.292 0 26.66 0 18.612 0 13.533 1.442 9.092 5.12 5.4 8.527 1.98 14.397 0 22.19 0Zm9.458 27.83c2.58-2.592 3.275-5.783 3.275-7.54 0-1.273-.333-3.142-1.92-4.733-2.433-2.444-5.128-3.134-8.06-3.134-3.713 0-6.208 1.179-7.87 2.849-1.303 1.308-2.43 3.32-2.43 6.178 0 2.857 1.517 5.617 3.17 7.275 1.527 1.533 3.927 2.668 6.344 2.668 2.416 0 4.911-.971 7.491-3.563Z" clip-rule="evenodd"/></svg>
